X:1
T:Farewell Then My Son
%%score 1 ( 2 3 4 )
L:1/8
M:4/4
K:A
V:1 treble nm="Voice"
V:2 treble-8 nm="Guitar"
V:3 treble-8 
V:4 treble-8 
V:1
 z6[Q:1/4=80]"^Pavel Antokolsky?/Fernando Sor  Arr. guitar & vocal, G.Dempsey" E2 |: %1
 E2 (3:2:2c2 c c2- (3:2:2c2 E | E2 (3:2:2B2 B B2 (3:2:2B2 G | B2 A2 z4 | z2 A2 (3:2:2G2 E F2 | %5
 F2 E2 z4 | z2 G2 G2 (3:2:2G2- G | G2 A2 z4 | z4 z2 (3:2:2E2 E | (3:2:2E2- E c2 c2 (3:2:2E2 E | %10
 E2 (3:2:2B2- B B2 (3:2:2B2- B | (3:2:2B2 G A2 A2 (3:2:2F2- F | A2 A2 G2 F2 | F2 E2 z E E2 | %14
 z2 (3:2:2G2 G G2 (3:2:2G2 G | A2 (3:2:2c2 c B2 (3:2:2A2 A | (3:2:2(B2 G) (3AAF G2 (3:2:2F2- F | %17
 F2 (3:2:2E2 E E3 z | z2 G2 (3:2:2G2- G (3:2:2G2- G | A4 z4 | z2 (3:2:2G2 G G2 (3:2:2G2 G | %21
 A2 (c2 B) z z A | (3:2:2B2 G (3:2:2A2 F (G2 (3:2:2F2) F | F2 (3E z E E3 z | z2 G2 G2 (G2 | %25
 A2) z2 z2 E2 :| z2 E2 A2 G2 | z2 E2 B2 A2 | z2 E2 c2 B2 | z2 E2 B2 A2 | z2 E2 A2 G2 | %31
 z2 E2 B2 A2 | z2 E2 c2 (3:2:2B2 A | A3 z z4 | z8 |] %35
V:2
 z8 |: e2 c'2 c'4 | z2 b2 b2 b2 | b2 a2 a4 | z2 a2 g2 f2 | f2 e2 e4 | z2 g2 g2 g2 | g2 a2 a4 | %8
 z2 e2 e2 e2 | e2 c'2 c'4 | z2 b2 b2 b2 | b2 a2 a4 | z2 a2 g2 f2 | f2 e2 e4 | z2 g2 g2 g2 | %15
 a2 c'2 b2 a2 | b2 a2 b2 f2 | f2 e2 e4 | z2 g2 g2 g2 | a2 z2 z4 | z2 g2 g2 g2 | a2 z2 z4 | %22
 b2 a2 g2 f2 | f2 e2 e4 | z2 g2 g2 g2 | a2 z2 z4 :| z2 e2 a2 g2 | z2 e2 b2 a2 | z2 e2 c'2 b2 | %29
 z2 e2 b2 a2 | z2 e2 a2 g2 | z2 e2 b2 a2 | z2 e2 c'2 b2 | c'4 a2 e2 | a4 z4 |] %35
V:3
 x8 |: (3eAe (3z Ae (3z Ae (3z Ae | (3z dg (3z dg (3z dg (3z dg | (3z dg (3z cf (3z cf (3z cf | %4
 (3z df (3z df (3z Ae (3z Ad | (3z Ae (3z Ac (3z Ac (3z ce | (3z Bd (3z Bd (3z Bd (3z Bd | %7
 (3z Bd (3z Ac (3z Ac (3z Ac | (3z Ac (3z Ac (3z Ac (3z Ac | (3eAe (3z Ae (3z Ae (3z Ae | %10
 (3z dg (3z dg (3z dg (3z dg | (3z dg (3z cf (3z cf (3z cf | (3z df (3z Af (3z Ae (3z Ad | %13
 (3z Ad (3z Ac (3z Ac (3z ce | (3z Bd (3z Bd (3z Bd (3z Bd | (3z Ac (3z Ac (3z Ac (3z Ac | %16
 (3z dg (3z df (3z de (3z dd | (3z Ac (3eAc (3eAc (3z Ac | (3z Bd (3z Bd (3z Bd (3z Bd | %19
 (3eAe (3Ace (3Ace (3Ace | (3z Bd (3z Bd (3z Bd (3z Bd | (3z Ac (3eAc (3eAc (3z Ac | %22
 (3z dg (3z cf (3z ce (3z cd | (3z Ac (3eAc (3eAc (3z Ac | (3z Bd (3z Bd (3z Bd (3z Bd | %25
 (3z ce (3Ace (3Ace (3Ace :| (3z Bd (3z Bd (3z Bd (3z Bd | (3eAe (3Ace (3Ace (3Ace | %28
 (3z Gd (3z Gd (3z Gd (3z Gd | (3z Ae (3Ace (3Ace (3Ace | (3z Bd (3z Bd (3z Bd (3z Bd | %31
 (3eAe (3Ace (3Ace (3Ace | (3z Gd (3z Gd (3z Gd (3z Gd | (3z Ac (3z Ac (3z Ac (3z Ac | A,4 z4 |] %35
V:4
 x8 |: A,6 A,2 | E8 | D6 F2 | D8 | E6 A,2 | E8 | A,6 A,2 | A,8 | A,6 A,2 | E4 ^E4 | F6 F2 | D8 | %13
 E6 E2 | E6 E2 | A,8 | D8 | E6 E2 | E8 | A,8 | E8 | A,6 E2 | D8 | E6 E2 | E8 | A,8 :| A,8 | A,8 | %28
 A,8 | A,8 | A,8 | A,8 | A,8 | A,4 A,4 | x8 |] %35

